X:438
T: Da Jesus hing am Kreuz verwund't (5-34), S. 58f
N: P0708
O: Lothringen
S: MERKELBACH-PINCK, Angelika: Verklingende Weisen, Bd 5, Kassel 1962]
R: geistliches, religiöses Lied]
M: 3/4
L: 1/8
K: G
 | _B2A2G2 | =F2_B2Bd | c4c2 | _B4
BA | A4_B2 | c2d2c_B | A4
G2 | =F4F2 | =F4F2 | G4G2 | =F4_E2 | D4
dc | c4dc | _B4A2 | G4A2 | A4G2 | A4
_B2 | c2_B2A2 | _B4A2 | G4z2

